icon_installer/data/icons/scalable/actions/show-social-network-none-symbolic.svg

<?xml version="1.0" encoding="UTF-8"?>
<svg height="16px" viewBox="0 0 16 16" width="16px" xmlns="http://www.w3.org/2000/svg">
    <g fill="#222222">
        <path d="m 6.855469 1 l -1.4375 5.417969 l 7.582031 7.582031 c 0.5 0 0.945312 -0.496094 1.023438 -1.144531 l 0.976562 -6.929688 c 0 -0.460937 -0.492188 -0.925781 -1 -0.925781 h -5 v -3 c 0 -0.570312 -0.496094 -1 -1.019531 -1 z m -5.855469 6 v 9 h 3 v -8.878906 l -0.121094 -0.121094 z m 4 1.121094 v 5.878906 h 5.878906 z m 0 0"/>
        <path d="m 1.53125 0.46875 l -1.0625 1.0625 l 14 14 l 1.0625 -1.0625 z m 0 0"/>
    </g>
</svg>

<svg xmlns="http://www.w3.org/2000/svg" width="16" height="16"><g fill="#222"><path d="M6.855 1 5.418 6.418 13 14c.5 0 .945-.496 1.023-1.145L15 5.925c0-.46-.492-.925-1-.925H9V2c0-.57-.496-1-1.02-1zM1 7v9h3V7.121L3.879 7zm4 1.121V14h5.879zm0 0"/><path d="M1.531.469.47 1.53l14 14 1.062-1.062zm0 0"/></g></svg>
